packages/kaspersky-hexa-ui-icons/src/iconsSVGs/48/PremiumCrown.svg

<svg width="48" height="48" viewBox="0 0 48 48" fill="none" xmlns="http://www.w3.org/2000/svg">
<path fill-rule="evenodd" clip-rule="evenodd" d="M24 29.333L22.25 27L24 24.667L25.75 27L24 29.333ZM19.75 27L24 32.667L28.25 27L24 21.333L19.75 27ZM42 39V43H5.99999V39H42ZM4.40399 18.213L13.296 24.427L24 7.03597L34.704 24.427L43.6 18.213L40.166 37H7.83399L4.40399 18.213ZM46.441 13.787L35.296 21.573L24 3.21997L12.704 21.573L1.56299 13.787L5.80099 37H3.99999V45H44V37H42.199L46.441 13.787Z"  fill="currentColor"/>
</svg>

<svg xmlns="http://www.w3.org/2000/svg" width="48" height="48" fill="none" viewBox="0 0 48 48"><path fill="currentColor" fill-rule="evenodd" d="M24 29.333 22.25 27 24 24.667 25.75 27zM19.75 27 24 32.667 28.25 27 24 21.333zM42 39v4H6v-4zM4.404 18.213l8.892 6.214L24 7.036l10.704 17.391 8.896-6.214L40.166 37H7.834zm42.037-4.426-11.145 7.786L24 3.22 12.704 21.573 1.563 13.787 5.801 37H4v8h40v-8h-1.801z" clip-rule="evenodd"/></svg>
